public/assets/img/vector2.svg

<svg width="76" height="68" viewBox="0 0 76 68" fill="none" xmlns="http://www.w3.org/2000/svg">
<path d="M74.7742 58.243H73.5484V16.776C73.5484 15.4821 73.0318 14.2412 72.1123 13.3264C71.1927 12.4115 69.9456 11.8975 68.6452 11.8975H50.2581C50.1797 8.71553 48.8542 5.69013 46.5646 3.46721C44.275 1.24429 41.2027 0 38.0037 0C34.8046 0 31.7323 1.24429 29.4427 3.46721C27.1531 5.69013 25.8276 8.71553 25.7493 11.8975H7.35484C6.05442 11.8975 4.80727 12.4115 3.88773 13.3264C2.9682 14.2412 2.45161 15.4821 2.45161 16.776V58.243H1.22581C0.900702 58.243 0.588914 58.3715 0.35903 58.6003C0.129147 58.829 0 59.1392 0 59.4627V61.9019C0.00194641 63.5186 0.648307 65.0686 1.7973 66.2118C2.9463 67.355 4.50411 67.9981 6.12903 68H69.871C71.4959 67.9981 73.0537 67.355 74.2027 66.2118C75.3517 65.0686 75.9981 63.5186 76 61.9019V59.4627C76 59.1392 75.8709 58.829 75.641 58.6003C75.4111 58.3715 75.0993 58.243 74.7742 58.243ZM38 24.1656C39.9146 24.1639 41.8021 23.715 43.5107 22.8552C45.2192 21.9954 46.7011 20.7486 47.8371 19.2152H66.1936V53.3646H9.80645V19.2152H28.1629C29.2989 20.7486 30.7808 21.9954 32.4893 22.8552C34.1979 23.715 36.0854 24.1639 38 24.1656ZM38 2.21248C39.9395 2.21248 41.8355 2.78471 43.4482 3.85682C45.0608 4.92893 46.3178 6.45276 47.06 8.23561C47.8022 10.0185 47.9964 11.9803 47.618 13.8729C47.2396 15.7656 46.3057 17.5041 44.9342 18.8686C43.5628 20.2332 41.8154 21.1624 39.9131 21.5389C38.0109 21.9154 36.0391 21.7222 34.2472 20.9837C32.4553 20.2452 30.9238 18.9946 29.8462 17.3901C28.7687 15.7856 28.1935 13.8992 28.1935 11.9694C28.1965 9.38262 29.2306 6.90259 31.069 5.07343C32.9075 3.24428 35.4001 2.21538 38 2.21248ZM4.90323 16.776C4.90323 16.129 5.16152 15.5086 5.62129 15.0512C6.08105 14.5937 6.70463 14.3367 7.35484 14.3367H25.9785C26.1439 15.1744 26.3987 15.9921 26.7385 16.776H8.58065C8.25554 16.776 7.94375 16.9045 7.71387 17.1332C7.48399 17.3619 7.35484 17.6721 7.35484 17.9956V54.5842C7.35484 54.9076 7.48399 55.2179 7.71387 55.4466C7.94375 55.6753 8.25554 55.8038 8.58065 55.8038H67.4194C67.7445 55.8038 68.0563 55.6753 68.2861 55.4466C68.516 55.2179 68.6452 54.9076 68.6452 54.5842V17.9956C68.6452 17.6721 68.516 17.3619 68.2861 17.1332C68.0563 16.9045 67.7445 16.776 67.4194 16.776H49.2627C49.6016 15.9918 49.8559 15.1742 50.0215 14.3367H68.6452C69.2954 14.3367 69.919 14.5937 70.3787 15.0512C70.8385 15.5086 71.0968 16.129 71.0968 16.776V58.243H45.3548C45.126 58.2418 44.9014 58.3043 44.7064 58.4235C44.5114 58.5427 44.3539 58.7138 44.2516 58.9175L43.3654 60.6823H32.6285L31.7484 58.9175C31.6461 58.7138 31.4886 58.5427 31.2936 58.4235C31.0986 58.3043 30.874 58.2418 30.6452 58.243H4.90323V16.776ZM73.5484 61.9019C73.5484 62.8723 73.1609 63.8029 72.4713 64.4891C71.7816 65.1753 70.8463 65.5608 69.871 65.5608H6.12903C5.15372 65.5608 4.21835 65.1753 3.5287 64.4891C2.83905 63.8029 2.45161 62.8723 2.45161 61.9019V60.6823H29.8876L30.7739 62.4483C30.8759 62.6508 31.0325 62.821 31.2263 62.94C31.4201 63.0589 31.6433 63.1217 31.871 63.1215H44.129C44.3577 63.1229 44.5823 63.0605 44.7772 62.9416C44.9722 62.8226 45.1298 62.6517 45.2323 62.4483L46.1185 60.6823H73.5484V61.9019Z" fill="#90A1AE"/>
<path d="M13.4839 50.9973H63.7419V48.558H58.8387V46.1188H56.3871V48.558H53.9355V46.1188H51.4839V48.558H49.0323V46.1188H46.5806V48.558H44.129V46.1188H41.6774V48.558H39.2258V46.1188H36.7742V48.558H34.3226V46.1188H31.871V48.558H29.4194V46.1188H26.9677V48.558H24.5161V46.1188H22.0645V48.558H19.6129V46.1188H17.1613V48.558H14.7097V46.1188H17.1613V43.6796H14.7097V41.2403H17.1613V38.8011H14.7097V36.3618H17.1613V33.9226H14.7097V31.4834H17.1613V29.0441H14.7097V26.6049H17.1613V24.1656H14.7097V21.7264H12.2581V49.7777C12.2581 50.1011 12.3872 50.4113 12.6171 50.6401C12.847 50.8688 13.1588 50.9973 13.4839 50.9973Z" fill="#90A1AE"/>
<path d="M19.9095 38.7645L22.2717 38.1766L20.8804 43.3649L23.2486 43.9942L24.9893 37.501L28.4694 36.6362L29.4439 41.4842C29.4913 41.7207 29.6082 41.9379 29.7797 42.1083C29.9512 42.2787 30.1696 42.3947 30.4074 42.4416C30.4858 42.4555 30.5655 42.4616 30.6452 42.4599C30.8469 42.46 31.0456 42.4104 31.2235 42.3158C31.4014 42.2211 31.5531 42.0842 31.665 41.9172L35.367 36.3911L38.3187 39.6219C38.5157 39.8371 38.7835 39.975 39.0738 40.0109L58.6867 42.4502L58.9907 40.0304L39.8277 37.6473L36.7742 34.2995L38.3065 32.0127L42.1677 34.8983C42.3926 35.0658 42.6685 35.1514 42.9492 35.1408C43.2299 35.1301 43.4984 35.0238 43.7098 34.8397L52.0625 27.5696L53.9821 34.258C54.0447 34.4764 54.1675 34.6731 54.3364 34.8259C54.5054 34.9787 54.7139 35.0814 54.9384 35.1226C55.163 35.1638 55.3946 35.1418 55.6073 35.0591C55.8199 34.9764 56.0051 34.8362 56.1419 34.6544L63.4968 24.8974L61.5355 23.4339L55.6614 31.226L53.8889 25.0499C53.832 24.8524 53.7259 24.6723 53.5805 24.5265C53.435 24.3807 53.2548 24.2738 53.0567 24.2158C52.8587 24.1578 52.649 24.1505 52.4474 24.1946C52.2457 24.2387 52.0585 24.3328 51.9031 24.4681L42.8432 32.3542L38.7355 29.288C38.6021 29.1885 38.4498 29.1171 38.2878 29.0781C38.1258 29.0392 37.9575 29.0335 37.7932 29.0615C37.6289 29.0895 37.472 29.1505 37.3322 29.2408C37.1924 29.3311 37.0726 29.4489 36.9801 29.5868L35.0691 32.4383L27.8748 24.5645C27.7267 24.4024 27.5374 24.283 27.3268 24.2188C27.1162 24.1547 26.8922 24.1482 26.6782 24.2C26.4643 24.2518 26.2683 24.3599 26.1109 24.5131C25.9534 24.6663 25.8404 24.8589 25.7836 25.0706L22.9925 35.4837L19.315 36.3984L19.9095 38.7645ZM27.5733 27.8611L33.6668 34.5324L31.2666 38.1157L30.6206 34.8983C30.5881 34.7366 30.5229 34.5832 30.4291 34.4472C30.3352 34.3113 30.2146 34.1957 30.0746 34.1075C29.9346 34.0193 29.7781 33.9602 29.6144 33.9339C29.4508 33.9075 29.2835 33.9145 29.1227 33.9543L25.7113 34.808L27.5733 27.8611Z" fill="#90A1AE"/>
<path d="M34.3226 19.2872H36.7742V18.0675H38V19.2872H40.4516V18.0675C41.1611 18.0666 41.8551 17.8614 42.4501 17.4769C43.045 17.0923 43.5155 16.5447 43.8047 15.9001C44.0939 15.2556 44.1895 14.5415 44.08 13.8441C43.9705 13.1466 43.6606 12.4956 43.1876 11.9694C43.6606 11.4433 43.9705 10.7923 44.08 10.0948C44.1895 9.39738 44.0939 8.68332 43.8047 8.03873C43.5155 7.39415 43.045 6.84656 42.4501 6.46199C41.8551 6.07742 41.1611 5.87229 40.4516 5.87134V4.65172H38V5.87134H36.7742V4.65172H34.3226V5.87134H31.871V8.31058H33.0968V15.6283H31.871V18.0675H34.3226V19.2872ZM40.4516 8.31058C40.7767 8.31058 41.0885 8.43907 41.3184 8.66779C41.5483 8.89652 41.6774 9.20673 41.6774 9.5302C41.6774 9.85366 41.5483 10.1639 41.3184 10.3926C41.0885 10.6213 40.7767 10.7498 40.4516 10.7498H35.5484V8.31058H40.4516ZM35.5484 13.1891H40.4516C40.7767 13.1891 41.0885 13.3175 41.3184 13.5463C41.5483 13.775 41.6774 14.0852 41.6774 14.4087C41.6774 14.7321 41.5483 15.0424 41.3184 15.2711C41.0885 15.4998 40.7767 15.6283 40.4516 15.6283H35.5484V13.1891Z" fill="#90A1AE"/>
</svg>

<svg width="76" height="68" fill="none" xmlns="http://www.w3.org/2000/svg"><path d="M74.774 58.243h-1.226V16.776a4.866 4.866 0 0 0-1.436-3.45 4.916 4.916 0 0 0-3.467-1.428H50.258a12.168 12.168 0 0 0-3.693-8.43A12.29 12.29 0 0 0 38.004 0a12.29 12.29 0 0 0-8.561 3.467 12.167 12.167 0 0 0-3.694 8.43H7.355c-1.3 0-2.548.514-3.467 1.43a4.866 4.866 0 0 0-1.436 3.449v41.467H1.226c-.325 0-.637.128-.867.357-.23.229-.359.54-.359.863v2.439a6.09 6.09 0 0 0 1.797 4.31A6.152 6.152 0 0 0 6.13 68h63.742a6.152 6.152 0 0 0 4.332-1.788A6.09 6.09 0 0 0 76 61.902v-2.44c0-.323-.13-.633-.359-.862a1.229 1.229 0 0 0-.867-.357ZM38 24.166a12.285 12.285 0 0 0 5.51-1.31 12.22 12.22 0 0 0 4.327-3.64h18.357v34.149H9.806v-34.15h18.357a12.22 12.22 0 0 0 4.326 3.64A12.285 12.285 0 0 0 38 24.165Zm0-21.954c1.94 0 3.836.573 5.448 1.645a9.768 9.768 0 0 1 3.612 4.379 9.711 9.711 0 0 1 .558 5.637 9.741 9.741 0 0 1-2.684 4.996 9.821 9.821 0 0 1-5.02 2.67 9.852 9.852 0 0 1-5.667-.555 9.796 9.796 0 0 1-4.4-3.594 9.722 9.722 0 0 1-1.654-5.42 9.744 9.744 0 0 1 2.876-6.897A9.843 9.843 0 0 1 38 2.213ZM4.903 16.776c0-.647.259-1.267.718-1.725a2.458 2.458 0 0 1 1.734-.714h18.623c.166.837.42 1.655.76 2.439H8.581c-.325 0-.637.128-.867.357-.23.229-.36.54-.36.863v36.588c0 .324.13.634.36.863.23.228.542.357.867.357h58.838c.326 0 .637-.129.867-.357.23-.23.36-.54.36-.863V17.996c0-.324-.13-.634-.36-.863a1.229 1.229 0 0 0-.867-.357H49.263c.339-.784.593-1.602.759-2.44h18.623c.65 0 1.274.258 1.734.715.46.458.718 1.078.718 1.725v41.467H45.355a1.23 1.23 0 0 0-1.103.674l-.887 1.765H32.63l-.88-1.765a1.222 1.222 0 0 0-1.104-.674H4.903V16.776Zm68.645 45.126a3.65 3.65 0 0 1-1.077 2.587 3.687 3.687 0 0 1-2.6 1.072H6.129c-.975 0-1.91-.386-2.6-1.072a3.65 3.65 0 0 1-1.077-2.587v-1.22h27.436l.886 1.766a1.222 1.222 0 0 0 1.097.673h12.258a1.23 1.23 0 0 0 1.103-.673l.886-1.766h27.43v1.22Z" fill="#90A1AE"/><path d="M13.484 50.997h50.258v-2.439h-4.903v-2.44h-2.452v2.44h-2.452v-2.44h-2.451v2.44h-2.452v-2.44h-2.451v2.44h-2.452v-2.44h-2.452v2.44h-2.451v-2.44h-2.452v2.44h-2.451v-2.44H31.87v2.44h-2.452v-2.44h-2.451v2.44h-2.452v-2.44h-2.451v2.44h-2.452v-2.44H17.16v2.44H14.71v-2.44h2.451V43.68H14.71v-2.44h2.451v-2.439H14.71v-2.44h2.451v-2.438H14.71v-2.44h2.451v-2.439H14.71v-2.44h2.451v-2.438H14.71v-2.44h-2.452v28.052c0 .323.13.633.36.862.229.229.54.357.866.357Z" fill="#90A1AE"/><path d="m19.91 38.764 2.362-.587-1.392 5.188 2.369.63 1.74-6.494 3.48-.865.975 4.848a1.217 1.217 0 0 0 1.201.976 1.23 1.23 0 0 0 1.02-.543l3.702-5.526 2.952 3.23c.197.216.464.354.755.39l19.613 2.44.304-2.42-19.163-2.384-3.054-3.347 1.532-2.287 3.862 2.885a1.23 1.23 0 0 0 1.542-.058l8.352-7.27 1.92 6.688a1.219 1.219 0 0 0 .956.865 1.232 1.232 0 0 0 1.204-.469l7.355-9.757-1.962-1.463-5.874 7.792-1.772-6.176a1.22 1.22 0 0 0-.832-.834 1.232 1.232 0 0 0-1.154.252l-9.06 7.886-4.108-3.066a1.23 1.23 0 0 0-1.755.299l-1.91 2.851-7.195-7.874a1.227 1.227 0 0 0-1.764-.05c-.158.152-.27.345-.327.557l-2.791 10.413-3.678.914.595 2.366Zm7.663-10.903 6.094 6.671-2.4 3.584-.646-3.218a1.217 1.217 0 0 0-1.007-.964 1.23 1.23 0 0 0-.491.02l-3.412.854 1.862-6.947ZM34.323 19.287h2.451v-1.22H38v1.22h2.452v-1.22c.71 0 1.403-.206 1.998-.59a3.665 3.665 0 0 0 1.355-1.577 3.642 3.642 0 0 0-.617-3.93 3.65 3.65 0 0 0 .617-3.931 3.664 3.664 0 0 0-1.355-1.577 3.691 3.691 0 0 0-1.998-.59v-1.22H38v1.22h-1.226v-1.22h-2.451v1.22H31.87V8.31h1.226v7.317H31.87v2.44h2.452v1.22Zm6.129-10.976c.325 0 .637.128.866.357a1.216 1.216 0 0 1 0 1.725 1.23 1.23 0 0 1-.866.357h-4.904V8.31h4.904Zm-4.904 4.878h4.904c.325 0 .637.129.866.357a1.216 1.216 0 0 1 0 1.725 1.23 1.23 0 0 1-.866.357h-4.904V13.19Z" fill="#90A1AE"/></svg>
